X: 754
T: Ferahfezâ Yürüksemâî
C: Zeki Mehmed Ağa
O: Turkey
F: http://compmusic.upf.edu/node/140
N: ferahfeza--yuruksemai--yuruksemai_ii--son_yuruksemai--zeki_mehmet_aga
N: makam= ferahfeza
N: form= yuruksemai
N: usul= yuruksemai_ii = 6/8
M: 6/8
L: 1/16
K: C _B   
Q: 1/4=162
%%MIDI tuningsystem comma53
a2b2 a2g2 f2e2  | f2e2 f2g2 a2z2  | a2b2 a2g2 f2e2  | \
w:   |   |   | 
d2fe fed^c d2z2  | 
w:   | 
a2b2 a2g2 f2e2  | f2e2 f2g2 a2z2  | a2b2 a2g2 f2e2  | \
w:   |   |   | 
d2fe fed^c d2z2  | 
w:   | 
d2^c2 d2e2 d2e2  | f2e2 f2g2 a2z2  | \
w:   |   | 
a2b2 a2g2 f2e2  | d2fe fed^c d2z2  | 
w:   |   | 
d2^c2 d2e2 d2e2  | f2e2 f2g2 a2z2  | \
w:   |   | 
a2b2 a2g2 f2e2  | d2fe fed^c d2z2  | 
w:   |   | 
abag f2ga gfe2  | fgfe d^cde fga2  | 
w:   |   | 
abag f2ga gfe2  | fgfe d^cd4z2  | |


